src/components/content/Icon/icons/carbon.svg

<svg width="24" height="24" viewBox="0 0 24 24" fill="none" xmlns="http://www.w3.org/2000/svg">
<g clip-path="url(#clip0_5259_5201)">
<path d="M18.1111 5.582H18.0881C17.2701 2.815 14.8171 0.921997 11.9891 0.921997C8.81214 0.921997 6.12514 3.374 5.68114 6.577H5.40014C2.92314 6.577 0.890137 8.663 0.890137 11.26C0.890137 13.856 2.90014 15.943 5.40014 15.943H6.31014C6.28714 15.724 6.31014 15.53 6.31014 15.312C6.33414 15.166 6.33414 15.045 6.35714 14.899H5.37614C3.43614 14.899 1.87114 13.274 1.87114 11.259C1.87114 9.246 3.43714 7.62 5.37614 7.62C5.58614 7.62 5.79614 7.644 6.00614 7.693C6.14714 7.717 6.28714 7.693 6.40414 7.596C6.46369 7.55042 6.51166 7.49145 6.54415 7.42386C6.57664 7.35627 6.59274 7.28197 6.59114 7.207C6.80114 4.247 9.16114 1.942 11.9881 1.942C14.4881 1.942 16.6381 3.713 17.2231 6.237C17.2691 6.48 17.5031 6.649 17.7601 6.625C17.9001 6.601 18.0171 6.601 18.1101 6.601C20.3071 6.601 22.0831 8.445 22.0831 10.726C22.0831 13.006 20.3071 14.851 18.1101 14.851H17.2221C17.1521 15.191 17.0821 15.555 17.0121 15.894H18.1101C20.8441 15.894 23.0871 13.589 23.0871 10.726C23.0871 7.911 20.8681 5.582 18.1111 5.582Z" fill="#0B301A"/>
<path d="M15.4241 8.93C12.4101 12.109 7.73714 12.012 7.43314 15.384C7.36314 16.137 7.55014 16.719 8.01714 17.326C9.2901 16.0317 10.7562 14.9427 12.3631 14.098C12.5031 14.026 12.6671 14.098 12.7131 14.268C12.7371 14.39 12.6901 14.511 12.5971 14.56C9.88714 16.282 8.39114 18.054 6.75514 22.251C6.63814 22.543 6.75514 22.907 7.03514 23.028C7.10514 23.052 7.17514 23.077 7.24514 23.077C7.45514 23.077 7.66614 22.931 7.76014 22.713C8.15714 21.718 9.16214 19.558 9.67614 18.83C11.1011 19.631 12.8761 19.85 14.1161 18.976C16.1951 17.52 16.5921 12.376 16.4521 9.343C16.4291 8.809 15.7981 8.542 15.4241 8.93Z" fill="#0B301A"/>
</g>
<defs>
<clipPath id="clip0_5259_5201">
<rect width="24" height="24" fill="white"/>
</clipPath>
</defs>
</svg>

<svg xmlns="http://www.w3.org/2000/svg" width="24" height="24" fill="none" viewBox="0 0 24 24"><g fill="#0b301a" clip-path="url(#a)"><path d="M18.111 5.582h-.023c-.818-2.767-3.27-4.66-6.099-4.66-3.177 0-5.864 2.452-6.308 5.655h-.28C2.922 6.577.89 8.663.89 11.26s2.01 4.683 4.51 4.683h.91c-.024-.219 0-.413 0-.631.023-.146.023-.267.046-.413h-.98c-1.94 0-3.506-1.625-3.506-3.64 0-2.013 1.566-3.639 3.505-3.639q.315 0 .63.073c.141.024.281 0 .398-.097a.48.48 0 0 0 .187-.389c.21-2.96 2.57-5.265 5.397-5.265 2.5 0 4.65 1.771 5.235 4.295.046.243.28.412.537.388.14-.024.257-.024.35-.024 2.197 0 3.973 1.844 3.973 4.125s-1.776 4.125-3.973 4.125h-.888c-.07.34-.14.704-.21 1.043h1.098c2.734 0 4.977-2.305 4.977-5.168 0-2.815-2.219-5.144-4.976-5.144"/><path d="M15.424 8.93c-3.014 3.179-7.687 3.082-7.99 6.454-.07.753.116 1.335.583 1.942a17.6 17.6 0 0 1 4.346-3.228c.14-.072.304 0 .35.17.024.122-.023.243-.116.292-2.71 1.722-4.206 3.494-5.842 7.691-.117.292 0 .656.28.777.07.024.14.049.21.049.21 0 .421-.146.515-.364.397-.995 1.402-3.155 1.916-3.883 1.425.801 3.2 1.02 4.44.146 2.08-1.456 2.476-6.6 2.336-9.633-.023-.534-.654-.801-1.028-.413"/></g><defs><clipPath id="a"><path fill="#fff" d="M0 0h24v24H0z"/></clipPath></defs></svg>
